images/ICONOS/SERVICIOS/EQUIPOS ICON.svg

<svg width="51" height="35" viewBox="0 0 51 35" fill="none" xmlns="http://www.w3.org/2000/svg">
<path d="M29.5739 15.1883C34.1003 16.921 37.1467 19.8596 38.471 24.3272C38.8205 25.5057 38.9755 26.7634 39.039 27.9936C39.1132 29.4269 38.2666 30.4895 37.1847 31.362C34.9436 33.1707 32.2928 34.0648 29.4911 34.5732C24.962 35.394 20.5258 35.0651 16.2673 33.2886C11.6487 31.3614 10.488 28.8826 11.9761 24.2014C13.2383 20.2304 15.843 17.3926 19.7079 15.6704C20.034 15.525 20.3621 15.3842 20.8425 15.1746C18.1483 13.2853 16.7858 10.8321 16.9308 7.66613C17.0377 5.33211 18.0574 3.43502 19.8409 1.91329C23.2099 -0.961159 28.6304 -0.542568 31.5338 2.80419C34.3248 6.02059 34.6696 11.5599 29.5739 15.1883ZM25.0288 33.2637C28.5602 33.1392 31.9741 32.5372 35.1013 30.7273C36.8941 29.6896 37.4908 28.2576 37.1513 26.2839C36.1971 20.7381 31.2798 16.5751 25.6896 16.3458C20.2324 16.1218 14.6796 19.7574 13.392 25.8489C12.79 28.6978 13.3432 29.818 16.0107 31.2153C18.8172 32.6853 21.8775 33.1229 25.0288 33.2637ZM25.2159 14.5083C28.7881 14.5038 31.7469 11.6673 31.7656 8.22884C31.785 4.75696 28.7453 1.74691 25.2219 1.74822C21.6303 1.74953 18.727 4.64625 18.739 8.2177C18.7517 11.7551 21.5915 14.5129 25.2159 14.5083Z" fill="url(#paint0_linear_1_1736)"/>
<path d="M40.6714 28.2707C40.6714 27.6072 40.6714 27.1368 40.6714 26.7261C42.2845 26.485 43.9095 26.4464 45.395 25.9806C49.5839 24.6672 50.323 23.5064 47.9468 19.3971C45.838 15.7497 40.4883 14.4474 36.2787 17.7418C35.8557 17.392 35.4267 17.0369 34.8547 16.564C35.851 15.9187 36.7511 15.335 37.7353 14.6977C36.2199 13.3056 35.3679 11.6011 35.5984 9.49509C35.7675 7.94978 36.4544 6.65994 37.6765 5.66947C40.0574 3.73963 43.5293 3.96629 45.6796 6.17453C47.9889 8.54589 47.7845 11.7485 45.0695 14.7232C45.4244 14.9178 45.7658 15.0946 46.0972 15.2879C49.0013 16.9839 50.6363 19.4666 50.9785 22.778C51.1168 24.1169 50.5829 25.1303 49.5452 25.9131C46.9505 27.8711 43.9557 28.369 40.6714 28.2707ZM37.4026 10.067C37.3865 12.2981 39.1219 14.0681 41.363 14.1048C43.5253 14.1402 45.4631 12.3014 45.5019 10.1764C45.5406 8.01921 43.7291 6.21449 41.484 6.17388C39.2208 6.13326 37.4179 7.85283 37.4026 10.067Z" fill="url(#paint1_linear_1_1736)"/>
<path d="M5.70901 14.7946C3.07027 11.8167 2.94599 8.55768 5.29339 6.31668C7.43364 4.27352 10.9123 4.18901 13.0947 6.12671C15.6946 8.43584 15.6713 11.4053 13.0399 14.7278C13.9005 15.2905 14.7638 15.8545 15.7154 16.4762C15.1915 16.9282 14.7979 17.2682 14.3302 17.6717C12.7225 16.4906 10.9618 15.8205 8.89567 15.8879C5.30742 16.0052 1.84278 19.2517 1.84479 22.7891C1.84479 23.4121 2.38603 24.2204 2.92594 24.6226C4.5009 25.7959 6.4153 26.1182 8.34975 26.2597C8.82952 26.295 9.31463 26.2649 9.85254 26.2649C9.85254 26.8813 9.85254 27.3798 9.85254 27.976C6.82758 28.1129 4.03983 27.6379 1.56882 25.9059C0.0225946 24.8231 -0.20994 23.306 0.144876 21.6205C0.810407 18.4578 2.66066 16.2017 5.70901 14.7946ZM5.44908 10.2091C5.44039 12.3912 7.07749 14.0419 9.26585 14.059C11.4041 14.0753 13.2069 12.3636 13.2343 10.291C13.2617 8.20722 11.509 6.47587 9.35473 6.45949C7.13161 6.4418 5.45776 8.04935 5.44908 10.2091Z" fill="url(#paint2_linear_1_1736)"/>
<defs>
<linearGradient id="paint0_linear_1_1736" x1="0" y1="35.0008" x2="51" y2="35.0008" gradientUnits="userSpaceOnUse">
<stop stop-color="#1723FF"/>
<stop offset="1" stop-color="#30E35E"/>
</linearGradient>
<linearGradient id="paint1_linear_1_1736" x1="0" y1="35.0008" x2="51" y2="35.0008" gradientUnits="userSpaceOnUse">
<stop stop-color="#1723FF"/>
<stop offset="1" stop-color="#30E35E"/>
</linearGradient>
<linearGradient id="paint2_linear_1_1736" x1="0" y1="35.0008" x2="51" y2="35.0008" gradientUnits="userSpaceOnUse">
<stop stop-color="#1723FF"/>
<stop offset="1" stop-color="#30E35E"/>
</linearGradient>
</defs>
</svg>

<svg xmlns="http://www.w3.org/2000/svg" width="51" height="35" fill="none"><path fill="url(#a)" d="M29.574 15.188c4.526 1.733 7.573 4.672 8.897 9.14.35 1.178.505 2.435.568 3.666.074 1.433-.772 2.495-1.854 3.368-2.241 1.809-4.892 2.703-7.694 3.211-4.529.821-8.965.492-13.224-1.284-4.618-1.928-5.779-4.406-4.29-9.088 1.261-3.97 3.866-6.808 7.73-8.53.327-.146.655-.287 1.136-.496-2.695-1.89-4.057-4.343-3.912-7.509.107-2.334 1.126-4.231 2.91-5.753 3.369-2.874 8.79-2.456 11.693.891 2.79 3.217 3.136 8.756-1.96 12.384Zm-4.545 18.076c3.531-.125 6.945-.727 10.072-2.537 1.793-1.037 2.39-2.47 2.05-4.443-.954-5.546-5.871-9.709-11.461-9.938-5.458-.224-11.01 3.411-12.298 9.503-.602 2.849-.049 3.969 2.619 5.366 2.806 1.47 5.867 1.908 9.018 2.049Zm.187-18.756c3.572-.004 6.53-2.84 6.55-6.28.019-3.471-3.02-6.481-6.544-6.48-3.592.002-6.495 2.898-6.483 6.47.013 3.537 2.852 6.295 6.477 6.29Z"/><path fill="url(#b)" d="M40.671 28.27v-1.544c1.614-.241 3.239-.28 4.724-.745 4.189-1.314 4.928-2.475 2.552-6.584-2.109-3.647-7.459-4.95-11.668-1.655l-1.424-1.178 2.88-1.866c-1.515-1.392-2.367-3.097-2.137-5.203.17-1.545.856-2.835 2.078-3.826 2.381-1.93 5.853-1.703 8.004.506 2.309 2.37 2.105 5.574-.61 8.548.354.195.696.372 1.027.565 2.904 1.696 4.54 4.179 4.881 7.49.139 1.339-.395 2.352-1.433 3.135-2.595 1.958-5.59 2.456-8.874 2.358Zm-3.268-18.203c-.017 2.231 1.719 4.001 3.96 4.038 2.162.035 4.1-1.804 4.139-3.929.039-2.157-1.773-3.962-4.018-4.002-2.263-.04-4.066 1.679-4.081 3.893Z"/><path fill="url(#c)" d="M5.709 14.795c-2.639-2.978-2.763-6.237-.416-8.478 2.14-2.043 5.62-2.128 7.802-.19 2.6 2.309 2.576 5.278-.055 8.6l2.675 1.75-1.385 1.195c-1.607-1.181-3.368-1.852-5.434-1.784-3.589.117-7.053 3.364-7.051 6.901 0 .623.541 1.431 1.08 1.834 1.576 1.173 3.49 1.495 5.425 1.637.48.035.965.005 1.503.005v1.711c-3.025.137-5.813-.338-8.284-2.07C.023 24.823-.21 23.306.145 21.62c.665-3.163 2.516-5.42 5.564-6.826Zm-.26-4.586c-.009 2.182 1.628 3.833 3.817 3.85 2.138.016 3.94-1.695 3.968-3.768.028-2.084-1.725-3.815-3.88-3.832-2.222-.017-3.896 1.59-3.905 3.75Z"/><defs><linearGradient id="a" x1="0" x2="51" y1="35.001" y2="35.001" gradientUnits="userSpaceOnUse"><stop stop-color="#1723FF"/><stop offset="1" stop-color="#30E35E"/></linearGradient><linearGradient id="b" x1="0" x2="51" y1="35.001" y2="35.001" gradientUnits="userSpaceOnUse"><stop stop-color="#1723FF"/><stop offset="1" stop-color="#30E35E"/></linearGradient><linearGradient id="c" x1="0" x2="51" y1="35.001" y2="35.001" gradientUnits="userSpaceOnUse"><stop stop-color="#1723FF"/><stop offset="1" stop-color="#30E35E"/></linearGradient></defs></svg>
